www.nintendo.com/images/page/super-nes-classic/icon-controller.svg

<svg height="18" viewBox="0 0 43 18" width="43" xmlns="http://www.w3.org/2000/svg"><g fill="#f5a81c" fill-rule="evenodd"><path d="m25.722132 9.19123585c0-4.40150943 3.7006326-7.98198113 8.2498571-7.98198113s8.2498572 3.5804717 8.2498572 7.98198113c0 4.40150945-3.7006327 7.98226415-8.2498572 7.98226415s-8.2498571-3.5807547-8.2498571-7.98226415zm-21.67872792 0c0-2.63660377 2.2169864-4.78132076 4.94178231-4.78132076 2.72508841 0 4.94178231 2.14471699 4.94178231 4.78132076 0 2.63632075-2.2166939 4.78132075-4.94178231 4.78132075-2.72479591 0-4.94178231-2.145-4.94178231-4.78132075zm34.59627892-8.00037736c-1.3798027-.75650943-2.9716803-1.1909434-4.6676939-1.1909434h-4.6668163v.49811321h-15.6531701v-.49811321h-4.66681631c-1.70186394 0-3.29929932.43754717-4.68261224 1.19915095v.57198113c-2.58029252 1.52745283-4.30263265 4.27896226-4.30263265 7.4204717 0 4.80113203 4.02298639 8.69320753 8.98524489 8.69320753 1.98238771 0 3.81412921-.6229245 5.30011561-1.6746226h14.386864c1.4859864 1.0516981 3.3174354 1.6746226 5.2998231 1.6746226 4.9622585 0 8.9852449-3.8920755 8.9852449-8.69320753 0-3.14745283-1.7287755-5.90377359-4.317551-7.4295283z"/><path d="m12.4315633 7.99998113h-2.2114286v-2.13962264c0-.09764151-.0827823-.17773585-.1837007-.17773585h-2.11694556c-.10121089 0-.1839932.08009434-.1839932.17773585v2.13962264h-2.21142857c-.10091837 0-.18370068.07981132-.18370068.17773585v2.04820752c0 .0979246.08278231.1777359.18370068.1777359h2.21142857v2.1399056c0 .0976415.08278231.1777359.1839932.1777359h2.11694556c.1009184 0 .1837007-.0800944.1837007-.1777359v-2.1399056h2.2114286c.1009183 0 .1837006-.0798113.1837006-.1777359v-2.04820752c0-.09792453-.0827823-.17773585-.1837006-.17773585"/><ellipse cx="38.173469" cy="9.084906" rx="1.667347" ry="1.613208"/><ellipse cx="33.961225" cy="6.028302" rx="1.667347" ry="1.613208"/><ellipse cx="33.785714" cy="12.481132" rx="1.667347" ry="1.613208"/><ellipse cx="29.573469" cy="9.424528" rx="1.667347" ry="1.613208"/></g></svg>

<?xml version="1.0" encoding="UTF-8"?>
<svg width="43px" height="18px" viewBox="0 0 43 18" version="1.1" xmlns="http://www.w3.org/2000/svg" xmlns:xlink="http://www.w3.org/1999/xlink">
    <!-- Generator: Sketch 46 (44423) - http://www.bohemiancoding.com/sketch -->
    <title>controller icon</title>
    <desc>Created with Sketch.</desc>
    <defs></defs>
    <g id="Page-1" stroke="none" stroke-width="1" fill="none" fill-rule="evenodd">
        <g id="Clover2_Phase2_04" transform="translate(-383.000000, -1726.000000)" fill="#F5A81C">
            <g id="CONTROLLERS" transform="translate(193.000000, 1222.000000)">
                <g id="My-Game-play-demo" transform="translate(190.000000, 502.000000)">
                    <g id="controller-icon" transform="translate(0.000000, 2.000000)">
                        <path d="M25.722132,9.19123585 C25.722132,4.78972642 29.4227646,1.20925472 33.9719891,1.20925472 C38.5212136,1.20925472 42.2218463,4.78972642 42.2218463,9.19123585 C42.2218463,13.5927453 38.5212136,17.1735 33.9719891,17.1735 C29.4227646,17.1735 25.722132,13.5927453 25.722132,9.19123585 Z M4.04340408,9.19123585 C4.04340408,6.55463208 6.26039048,4.40991509 8.98518639,4.40991509 C11.7102748,4.40991509 13.9269687,6.55463208 13.9269687,9.19123585 C13.9269687,11.8275566 11.7102748,13.9725566 8.98518639,13.9725566 C6.26039048,13.9725566 4.04340408,11.8275566 4.04340408,9.19123585 Z M38.639683,1.19085849 C37.2598803,0.434349057 35.6680027,-8.49056604e-05 33.9719891,-8.49056604e-05 L29.3051728,-8.49056604e-05 L29.3051728,0.498028302 L13.6520027,0.498028302 L13.6520027,-8.49056604e-05 L8.98518639,-8.49056604e-05 C7.28332245,-8.49056604e-05 5.68588707,0.437462264 4.30257415,1.19906604 L4.30257415,1.77104717 C1.72228163,3.2985 -5.85034014e-05,6.05000943 -5.85034014e-05,9.19151887 C-5.85034014e-05,13.9926509 4.02292789,17.8847264 8.98518639,17.8847264 C10.9675741,17.8847264 12.7993156,17.2618019 14.285302,16.2101038 L28.672166,16.2101038 C30.1581524,17.2618019 31.9896014,17.8847264 33.9719891,17.8847264 C38.9342476,17.8847264 42.957234,13.9926509 42.957234,9.19151887 C42.957234,6.04406604 41.2284585,3.28774528 38.639683,1.76199057 L38.639683,1.19085849 Z" id="Fill-12"></path>
                        <path d="M12.4315633,7.99998113 L10.2201347,7.99998113 L10.2201347,5.86035849 C10.2201347,5.76271698 10.1373524,5.68262264 10.036434,5.68262264 L7.91948844,5.68262264 C7.81827755,5.68262264 7.73549524,5.76271698 7.73549524,5.86035849 L7.73549524,7.99998113 L5.52406667,7.99998113 C5.4231483,7.99998113 5.34036599,8.07979245 5.34036599,8.17771698 L5.34036599,10.2259245 C5.34036599,10.3238491 5.4231483,10.4036604 5.52406667,10.4036604 L7.73549524,10.4036604 L7.73549524,12.543566 C7.73549524,12.6412075 7.81827755,12.7213019 7.91948844,12.7213019 L10.036434,12.7213019 C10.1373524,12.7213019 10.2201347,12.6412075 10.2201347,12.543566 L10.2201347,10.4036604 L12.4315633,10.4036604 C12.5324816,10.4036604 12.6152639,10.3238491 12.6152639,10.2259245 L12.6152639,8.17771698 C12.6152639,8.07979245 12.5324816,7.99998113 12.4315633,7.99998113" id="Fill-15"></path>
                        <ellipse id="Oval-5" cx="38.1734694" cy="9.08490566" rx="1.66734694" ry="1.61320755"></ellipse>
                        <ellipse id="Oval-5-Copy-2" cx="33.9612245" cy="6.02830189" rx="1.66734694" ry="1.61320755"></ellipse>
                        <ellipse id="Oval-5-Copy" cx="33.7857143" cy="12.4811321" rx="1.66734694" ry="1.61320755"></ellipse>
                        <ellipse id="Oval-5-Copy-3" cx="29.5734694" cy="9.4245283" rx="1.66734694" ry="1.61320755"></ellipse>
                    </g>
                </g>
            </g>
        </g>
    </g>
</svg>
